X: 28
T: Blue Bossa
C:Kenny Dorham
B:Real Book
M:4/4
L:1/8
Q:"Bossa Nova"1/4=160
Z:Ulf Bro
P: AAAABBA
K:Eb
P: A
Z7 | z4 z2 .G2 !segno! |: "Cm6" g3 f .ed zc- | c4 z .B2 A- | "Fm7" A4 z .g2 f- | "Bb7" f8 |
"Dm7b5" f3 e .dc zB- | "G7#5" B4 z .A2 G- | "Cm6" G4 z .f2 e- | e8 |
"Ebm7" e3 _d .cB zA- | "Ab7" A4 z ._G2 G- | "Dbmaj7" G3 F B3 A | A8 |
"Dm7b5" [F2A2] [EG] [FB]- [F3B3] [FA] | "G7#5" [F2A2] [FG] [FB]- [F3B3] [EA] | "Cm6" [D8G8]- | [D6G6] "G7" .G2 !coda! :|
P: B
|: "Cm6" g4- g.e =Bc- | c4- c.B GA- | "Fm7" A4- A.G =EF- | F8 |
"Dm7b5" f4- f.d =AB- | "G7#5" B4- B.A ^FG- | "Cm6" G4- G.=F DE- | E8 |
"Ebm7" e4- e.c GA- | "Ab7" A4- A._G =EF- | "Dbmaj7" F4- F._E C_D- | D8 |
"Dm7b5" G6 FB- | "G7#5" B4- BG FG- | "Cm6" G8- |1 G8 :|2 G6 .G2 !D.S.!|
!coda!  "Cm6"  "fading out" z8 | z8 | z8 | z8 |


